src/Widgets/IconWidget/thumbnail.svg

<svg xmlns="http://www.w3.org/2000/svg" fill="none" viewBox="0 0 150 100"><g clip-path="url(#a)"><path fill="#AAA" d="M75.04 83.06c18.247 0 33.04-15.012 33.04-33.53S93.287 16 75.04 16C56.792 16 42 31.012 42 49.53s14.792 33.53 33.04 33.53" opacity=".55"/><path stroke="#fff" stroke-miterlimit="10" stroke-width="4" d="m76.99 29.54 5.17 10.48c.32.64.93 1.09 1.64 1.19l11.56 1.68c1.78.26 2.49 2.45 1.2 3.71l-8.37 8.15c-.51.5-.75 1.22-.63 1.92l1.97 11.51c.3 1.78-1.56 3.13-3.15 2.29l-10.34-5.44c-.63-.33-1.39-.33-2.02 0l-10.34 5.44c-1.59.84-3.46-.52-3.15-2.29l1.97-11.51c.12-.71-.11-1.42-.63-1.92L53.5 46.6c-1.29-1.26-.58-3.45 1.2-3.71l11.56-1.68c.71-.1 1.32-.55 1.64-1.19l5.17-10.48c.8-1.62 3.1-1.62 3.9 0z" opacity=".75"/></g><defs><clipPath id="a"><path fill="#fff" d="M42 16h66.09v67.06H42z"/></clipPath></defs></svg>

<svg viewBox="0 0 150 100" fill="none" xmlns="http://www.w3.org/2000/svg">
<g id="icon">
<g id="Ebene_1" clip-path="url(#clip0_6_481)">
<path id="Vector" opacity="0.55" d="M75.04 83.06C93.2875 83.06 108.08 68.0481 108.08 49.53C108.08 31.0119 93.2875 16 75.04 16C56.7925 16 42 31.0119 42 49.53C42 68.0481 56.7925 83.06 75.04 83.06Z" fill="#AAAAAA"/>
<path id="Vector_2" opacity="0.75" d="M76.99 29.54L82.16 40.02C82.48 40.66 83.09 41.11 83.8 41.21L95.36 42.89C97.14 43.15 97.85 45.34 96.56 46.6L88.19 54.75C87.68 55.25 87.44 55.97 87.56 56.67L89.53 68.18C89.83 69.96 87.97 71.31 86.38 70.47L76.04 65.03C75.41 64.7 74.65 64.7 74.02 65.03L63.68 70.47C62.09 71.31 60.22 69.95 60.53 68.18L62.5 56.67C62.62 55.96 62.39 55.25 61.87 54.75L53.5 46.6C52.21 45.34 52.92 43.15 54.7 42.89L66.26 41.21C66.97 41.11 67.58 40.66 67.9 40.02L73.07 29.54C73.87 27.92 76.17 27.92 76.97 29.54H76.99Z" stroke="white" stroke-width="4" stroke-miterlimit="10"/>
</g>
</g>
<defs>
<clipPath id="clip0_6_481">
<rect width="66.09" height="67.06" fill="white" transform="translate(42 16)"/>
</clipPath>
</defs>
</svg>
